src/images/eyeClosed.svg

<svg xmlns="http://www.w3.org/2000/svg" width="24" height="24" viewBox="0 0 24 24" fill="none">
    <path
        d="M21.375 16.4063C21.2894 16.4551 21.1949 16.4866 21.0971 16.4989C20.9992 16.5112 20.8999 16.5041 20.8048 16.478C20.7097 16.4518 20.6207 16.4072 20.5429 16.3467C20.4651 16.2861 20.3999 16.2108 20.3513 16.125L18.57 13.0125C17.5344 13.7127 16.3921 14.2402 15.1875 14.5744L15.7378 17.8763C15.7541 17.9735 15.751 18.0729 15.7288 18.1689C15.7065 18.2649 15.6656 18.3556 15.6083 18.4358C15.551 18.516 15.4785 18.5841 15.3949 18.6363C15.3113 18.6884 15.2182 18.7236 15.121 18.7397C15.081 18.7462 15.0405 18.7497 15 18.75C14.8226 18.7498 14.651 18.6866 14.5157 18.5718C14.3805 18.4569 14.2903 18.2979 14.2613 18.1228L13.7203 14.881C12.5796 15.0397 11.4223 15.0397 10.2816 14.881L9.74064 18.1228C9.71153 18.2982 9.62109 18.4575 9.48545 18.5724C9.3498 18.6872 9.17776 18.7502 9.00001 18.75C8.95856 18.7498 8.91718 18.7464 8.87626 18.7397C8.77904 18.7236 8.68596 18.6884 8.60233 18.6363C8.5187 18.5841 8.44617 18.516 8.38888 18.4358C8.33159 18.3556 8.29067 18.2649 8.26845 18.1689C8.24623 18.0729 8.24315 17.9735 8.25939 17.8763L8.81251 14.5744C7.60842 14.2391 6.4667 13.7107 5.43189 13.0097L3.65626 16.125C3.60702 16.2108 3.54135 16.2861 3.46302 16.3465C3.38468 16.407 3.29521 16.4514 3.19971 16.4772C3.10421 16.5031 3.00455 16.5099 2.90643 16.4972C2.80831 16.4846 2.71364 16.4527 2.62783 16.4035C2.54202 16.3542 2.46674 16.2885 2.40631 16.2102C2.34588 16.1319 2.30147 16.0424 2.27561 15.9469C2.24976 15.8514 2.24296 15.7517 2.25562 15.6536C2.26828 15.5555 2.30014 15.4608 2.34939 15.375L4.22439 12.0938C3.56579 11.5248 2.96019 10.8972 2.41501 10.2188C2.34702 10.1429 2.29522 10.0539 2.26276 9.95729C2.2303 9.86069 2.21787 9.75849 2.22622 9.65693C2.23457 9.55536 2.26353 9.45657 2.31133 9.36657C2.35914 9.27657 2.42478 9.19726 2.50426 9.13347C2.58373 9.06969 2.67537 9.02277 2.77359 8.99558C2.8718 8.96839 2.97452 8.9615 3.07548 8.97533C3.17645 8.98916 3.27353 9.02342 3.36082 9.07602C3.4481 9.12862 3.52374 9.19846 3.58314 9.28127C5.13939 11.2069 7.86189 13.5 12 13.5C16.1381 13.5 18.8606 11.2041 20.4169 9.28127C20.4756 9.19676 20.5511 9.12525 20.6386 9.07117C20.7262 9.01708 20.8239 8.9816 20.9257 8.96691C21.0276 8.95222 21.1314 8.95865 21.2306 8.98579C21.3299 9.01293 21.4225 9.06021 21.5027 9.12468C21.5829 9.18915 21.649 9.26943 21.6968 9.36054C21.7447 9.45164 21.7732 9.55161 21.7808 9.65423C21.7883 9.75686 21.7747 9.85993 21.7407 9.95706C21.7067 10.0542 21.653 10.1433 21.5831 10.2188C21.038 10.8972 20.4324 11.5248 19.7738 12.0938L21.6488 15.375C21.6991 15.4606 21.732 15.5552 21.7454 15.6535C21.7589 15.7519 21.7527 15.8519 21.7273 15.9478C21.7018 16.0437 21.6576 16.1337 21.5971 16.2123C21.5366 16.291 21.4611 16.357 21.375 16.4063Z"
        fill="white" />
</svg>

<svg xmlns="http://www.w3.org/2000/svg" width="24" height="24" fill="none"><path fill="#fff" d="M21.375 16.406a.75.75 0 0 1-1.024-.281l-1.781-3.113a11.553 11.553 0 0 1-3.383 1.562l.55 3.302a.749.749 0 1 1-1.476.247l-.54-3.242c-1.141.159-2.299.159-3.44 0l-.54 3.242a.75.75 0 1 1-1.482-.247l.554-3.302a11.554 11.554 0 0 1-3.381-1.564l-1.776 3.115a.753.753 0 1 1-1.307-.75l1.875-3.281a14.391 14.391 0 0 1-1.809-1.875.75.75 0 1 1 1.168-.938C5.14 11.207 7.862 13.5 12 13.5s6.86-2.296 8.417-4.219a.75.75 0 1 1 1.166.938 14.385 14.385 0 0 1-1.81 1.875l1.876 3.281a.75.75 0 0 1-.274 1.031Z"/></svg>
